img/icon-time-24.svg

<svg width="238" height="276" viewBox="0 0 238 276" fill="none" xmlns="http://www.w3.org/2000/svg">
<path d="M211.314 81.6277L215.587 77.3408C221.752 71.1663 222.878 62.1925 218.086 57.4017C213.294 52.6109 204.334 53.7227 198.176 59.8971L193.871 64.208C176.746 50.2779 156.074 41.4187 134.187 38.6304V30.9603H140.305C149.019 30.9603 156.151 23.994 156.151 15.4842C156.151 6.97427 149.019 0 140.305 0H97.7208C89.0075 0 81.8755 6.96627 81.8755 15.4842C81.8755 24.002 89.0075 30.9603 97.7208 30.9603H103.839V38.6304C77.6967 41.9933 53.4093 53.9522 34.7872 72.6308C16.1652 91.3093 4.26218 115.651 0.945904 141.835C-2.37038 168.02 3.08771 194.566 16.4638 217.309C29.8399 240.052 50.377 257.704 74.8528 267.496C99.3286 277.288 126.358 278.665 151.7 271.412C177.042 264.16 199.263 248.687 214.875 227.421C230.488 206.156 238.609 180.302 237.964 153.915C237.32 127.529 227.946 102.103 211.314 81.6277ZM119.013 244.947C101.61 244.947 84.5984 239.779 70.1286 230.097C55.6589 220.414 44.3813 206.652 37.7219 190.551C31.0625 174.45 29.3205 156.733 32.7162 139.64C36.1119 122.547 44.4927 106.847 56.7989 94.5241C69.105 82.2015 84.7837 73.81 101.852 70.411C118.921 67.012 136.613 68.7581 152.69 75.4285C168.768 82.0989 182.509 93.3939 192.176 107.885C201.844 122.377 207.003 139.413 207.001 156.841C206.999 180.209 197.728 202.619 181.227 219.142C164.726 235.665 142.348 244.947 119.013 244.947Z" fill="#DEDEDE"/>
<circle cx="119" cy="157" r="93" stroke="#D22856" stroke-width="16"/>
<path d="M115.812 191H67.9062V180.922L85.1094 163.531C88.5781 159.969 91.3594 157 93.4531 154.625C95.5781 152.219 97.1094 150.031 98.0469 148.062C99.0156 146.094 99.5 143.984 99.5 141.734C99.5 139.016 98.7344 136.984 97.2031 135.641C95.7031 134.266 93.6875 133.578 91.1562 133.578C88.5 133.578 85.9219 134.188 83.4219 135.406C80.9219 136.625 78.3125 138.359 75.5938 140.609L67.7188 131.281C69.6875 129.594 71.7656 128 73.9531 126.5C76.1719 125 78.7344 123.797 81.6406 122.891C84.5781 121.953 88.0938 121.484 92.1875 121.484C96.6875 121.484 100.547 122.297 103.766 123.922C107.016 125.547 109.516 127.766 111.266 130.578C113.016 133.359 113.891 136.516 113.891 140.047C113.891 143.828 113.141 147.281 111.641 150.406C110.141 153.531 107.953 156.625 105.078 159.688C102.234 162.75 98.7969 166.141 94.7656 169.859L85.9531 178.156V178.812H115.812V191ZM172.297 176.797H164.047V191H149.891V176.797H120.641V166.719L150.688 122.469H164.047V165.547H172.297V176.797ZM149.891 165.547V153.922C149.891 152.828 149.906 151.531 149.938 150.031C150 148.531 150.062 147.031 150.125 145.531C150.188 144.031 150.25 142.703 150.312 141.547C150.406 140.359 150.469 139.531 150.5 139.062H150.125C149.531 140.344 148.906 141.594 148.25 142.812C147.594 144 146.828 145.25 145.953 146.562L133.391 165.547H149.891Z" fill="#D22856"/>
</svg>

<svg width="238" height="276" fill="none" xmlns="http://www.w3.org/2000/svg"><path d="m211.31 81.63 4.28-4.29c6.16-6.17 7.29-15.15 2.5-19.94-4.8-4.79-13.76-3.68-19.91 2.5l-4.3 4.3a118.27 118.27 0 0 0-59.7-25.57v-7.67h6.13c8.7 0 15.84-6.97 15.84-15.48 0-8.5-7.13-15.48-15.84-15.48H97.72c-8.71 0-15.84 6.97-15.84 15.48 0 8.52 7.13 15.48 15.84 15.48h6.12v7.67a118.94 118.94 0 0 0-69.05 34 119.31 119.31 0 0 0-18.32 144.68 119.05 119.05 0 0 0 58.38 50.19 118.84 118.84 0 0 0 76.85 3.91 118.99 118.99 0 0 0 63.18-43.99 119.28 119.28 0 0 0-3.57-145.8Zm-92.3 163.32a87.9 87.9 0 0 1-48.88-14.85A88.23 88.23 0 0 1 56.8 94.53a87.95 87.95 0 0 1 95.89-19.1 88.01 88.01 0 0 1 39.49 32.45 88.2 88.2 0 0 1-10.95 111.26 87.92 87.92 0 0 1-62.22 25.8Z" fill="#DEDEDE"/><circle cx="119" cy="157" r="93" stroke="#D22856" stroke-width="16"/><path d="M115.81 191h-47.9v-10.08l17.2-17.39c3.47-3.56 6.25-6.53 8.34-8.9a29.53 29.53 0 0 0 4.6-6.57 14.14 14.14 0 0 0 1.45-6.33c0-2.71-.77-4.75-2.3-6.09-1.5-1.37-3.51-2.06-6.04-2.06-2.66 0-5.24.6-7.74 1.83a39.92 39.92 0 0 0-7.83 5.2l-7.87-9.33a73.13 73.13 0 0 1 6.23-4.78 29.1 29.1 0 0 1 7.7-3.6 34.37 34.37 0 0 1 10.54-1.42c4.5 0 8.36.82 11.58 2.44a18.14 18.14 0 0 1 7.5 6.66 17.4 17.4 0 0 1 2.62 9.47c0 3.78-.75 7.23-2.25 10.36a37.31 37.31 0 0 1-6.56 9.28 189.91 189.91 0 0 1-10.31 10.17l-8.82 8.3v.65h29.86V191Zm56.49-14.2h-8.25V191h-14.16v-14.2h-29.25v-10.08l30.05-44.25h13.36v43.08h8.25v11.25Zm-22.4-11.25v-11.63c0-1.1 0-2.39.04-3.89l.19-4.5a349 349 0 0 1 .18-3.98l.19-2.49h-.38a52.8 52.8 0 0 1-4.17 7.5l-12.56 18.99h16.5Z" fill="#D22856"/></svg>
